build/img/sprite/icon-home.svg

<svg id="home" width="35" height="35" viewBox="0 0 35 35" fill="currentColor" xmlns="http://www.w3.org/2000/svg">
<path d="M31.7277 16.9653V30.8768C32.2336 30.8768 32.7247 30.8748 33.2157 30.8768C34.0189 30.8797 34.4324 31.2653 34.4502 32.0503C34.4632 32.6423 34.4622 33.2354 34.4502 33.8275C34.4343 34.6211 34.0328 35 33.2286 35C22.7379 35 12.2473 35 1.75658 35C0.975297 35 0.567756 34.6192 0.549864 33.8498C0.535948 33.2451 0.535948 32.6404 0.549864 32.0367C0.567756 31.277 0.989213 30.8826 1.76056 30.8777C2.23171 30.8748 2.70287 30.8738 3.17403 30.87C3.19689 30.87 3.21975 30.8564 3.26547 30.8409V16.9808C3.18894 17.0157 3.11538 17.0447 3.0458 17.0806C2.44443 17.3907 1.8202 17.287 1.36196 16.7889C1.03891 16.4381 0.723815 16.0806 0.410704 15.721C-0.180726 15.0408 -0.134008 14.3295 0.554835 13.75C1.85002 12.6599 3.14818 11.5736 4.45629 10.4989C4.67795 10.3167 4.76045 10.1307 4.75846 9.85159C4.74753 7.77204 4.7515 5.69249 4.7525 3.61294C4.7525 2.75922 5.11332 2.4094 5.99798 2.40746C7.05162 2.40456 8.10626 2.40359 9.1599 2.40746C10.0127 2.41134 10.3726 2.76988 10.3736 3.60713C10.3736 4.22053 10.3736 4.83296 10.3736 5.53551C10.5435 5.39984 10.6549 5.31457 10.7612 5.22542C12.6637 3.63717 14.5653 2.04892 16.4678 0.460671C17.1984 -0.148852 17.7888 -0.155635 18.5194 0.452919C23.8045 4.86203 29.0886 9.27211 34.3697 13.6841C35.156 14.3411 35.2027 15.0204 34.5318 15.7869C34.2584 16.0999 33.9811 16.4091 33.7018 16.7172C33.171 17.3054 32.5815 17.4072 31.8748 17.037C31.834 17.0157 31.7923 16.9973 31.7247 16.9653H31.7277ZM4.48511 30.8758C5.74451 30.8758 6.95719 30.8787 8.16987 30.868C8.24641 30.868 8.37762 30.7663 8.39054 30.6955C8.54163 29.8738 9.07044 29.2643 9.55153 28.617C9.80003 28.2826 10.0167 27.8941 10.1221 27.4987C10.3775 26.5394 10.0227 25.7205 9.36665 25.0034C8.6122 24.1788 8.25337 23.2175 8.32991 22.108C8.33985 21.9578 8.3309 21.8066 8.3309 21.6564C7.86372 22.2039 7.47805 22.7737 7.0884 23.3406C6.82201 23.7282 6.50094 23.8328 6.18684 23.6429C5.85683 23.4433 5.81906 23.1002 6.09042 22.6971C6.85183 21.5663 7.61522 20.4354 8.38259 19.3074C8.66488 18.8917 9.17381 18.8791 9.45611 19.2929C10.2473 20.449 11.0296 21.6099 11.8089 22.7737C12.0286 23.1022 11.963 23.452 11.6737 23.6361C11.3785 23.8241 11.0445 23.7466 10.8109 23.4123C10.4471 22.8938 10.0982 22.3647 9.74039 21.8424C9.69268 21.7727 9.62906 21.7136 9.56843 21.6428C9.38752 22.7204 9.65391 23.639 10.4113 24.4113C10.4879 24.4898 10.5495 24.5819 10.6161 24.6691C11.6697 26.0606 11.6678 27.8253 10.6091 29.2178C10.4173 29.4697 10.1966 29.7033 10.0237 29.9668C9.84874 30.2343 9.71554 30.5279 9.56147 30.8147C9.6559 30.8535 9.67876 30.8709 9.70163 30.8709C12.0455 30.8748 14.3893 30.8777 16.7342 30.8729C16.8117 30.8729 16.9489 30.8031 16.9578 30.7498C17.1089 29.8166 17.7331 29.148 18.2858 28.4358C18.7401 27.8514 18.8355 27.1828 18.7351 26.4735C18.6456 25.8416 18.254 25.3697 17.8564 24.9046C17.1934 24.1294 16.8525 23.2495 16.9022 22.233C16.9121 22.0382 16.9032 21.8415 16.9032 21.6467C16.437 22.2107 16.0483 22.7843 15.6557 23.3551C15.3923 23.7379 15.0643 23.8367 14.7511 23.6371C14.445 23.4413 14.4042 23.0896 14.6557 22.7155C15.4181 21.5847 16.1815 20.4548 16.9479 19.3268C17.2441 18.8908 17.7471 18.8801 18.0403 19.3103C18.8166 20.447 19.587 21.5866 20.3553 22.7281C20.5949 23.0838 20.5551 23.4258 20.2659 23.6255C19.9577 23.8377 19.6168 23.7466 19.3563 23.3706C19.0035 22.8599 18.6586 22.3434 18.3067 21.8308C18.26 21.762 18.1964 21.7039 18.1367 21.638C17.9488 22.733 18.2431 23.6555 19.0035 24.4365C19.0969 24.5325 19.1725 24.6449 19.253 24.7525C19.906 25.6226 20.071 26.5956 19.907 27.6441C19.7798 28.4571 19.2967 29.0792 18.8057 29.7081C18.5423 30.0453 18.3395 30.4271 18.1089 30.7886C18.1387 30.8186 18.1685 30.8496 18.1983 30.8797C18.8156 30.8797 19.4319 30.8797 20.0492 30.8797C21.7728 30.8797 23.4974 30.8826 25.221 30.8729C25.3432 30.8729 25.5589 30.7954 25.5718 30.7266C25.7358 29.8389 26.3084 29.1829 26.8501 28.5065C27.3272 27.9096 27.4594 27.2322 27.3521 26.4899C27.2626 25.8688 26.8978 25.4007 26.5052 24.9472C25.8203 24.1555 25.4635 23.2572 25.5231 22.2126C25.5341 22.0275 25.5251 21.8415 25.5251 21.6554C25.049 22.2194 24.6574 22.8018 24.2578 23.3784C24.0093 23.7379 23.6783 23.8319 23.3761 23.6419C23.0679 23.4501 23.0103 23.108 23.2479 22.7553C24.0291 21.5924 24.8124 20.4315 25.6036 19.2764C25.871 18.8859 26.3561 18.8733 26.6245 19.2629C27.4336 20.4354 28.2298 21.6176 29.021 22.8027C29.2258 23.1099 29.1483 23.4568 28.8709 23.6352C28.5827 23.8202 28.2507 23.7582 28.03 23.4462C27.6632 22.9297 27.3153 22.4006 26.9565 21.8783C26.8998 21.7959 26.8332 21.7213 26.7448 21.6108C26.6414 22.9878 26.7567 23.3609 27.5767 24.3774C27.692 24.5199 27.8083 24.6614 27.9137 24.8106C28.8163 26.082 28.8272 27.7555 27.9336 29.0346C27.7248 29.3341 27.4684 29.6015 27.2646 29.9038C27.0728 30.1897 26.9217 30.5017 26.7229 30.8535H30.515V30.5463C30.515 25.7699 30.512 20.9926 30.522 16.2162C30.522 15.9614 30.4096 15.8209 30.2327 15.6736C26.0857 12.216 21.9408 8.75658 17.8007 5.29131C17.5821 5.10816 17.4449 5.08685 17.2133 5.28065C13.0743 8.74786 8.92929 12.2073 4.77934 15.661C4.56066 15.8431 4.47915 16.0302 4.47915 16.3083C4.4871 21.012 4.48511 25.7166 4.48511 30.4203V30.8777V30.8758ZM33.832 14.7859C33.6093 14.5941 33.4274 14.4322 33.2405 14.2762C28.1354 10.0144 23.0302 5.75257 17.924 1.49269C17.431 1.08085 17.5632 1.08958 17.096 1.47913C12.46 5.34558 7.82595 9.21397 3.19291 13.0824C2.52594 13.6396 1.86095 14.1987 1.16714 14.7811C1.51305 15.1716 1.84604 15.5272 2.15319 15.9032C2.32515 16.1135 2.45437 16.0844 2.63727 15.9236C3.03288 15.5757 3.44241 15.2433 3.84696 14.9051C8.03866 11.4069 12.2304 7.90771 16.424 4.41143C17.2371 3.7331 17.7779 3.73795 18.591 4.4153C21.9358 7.20613 25.2786 9.99792 28.6224 12.7897C29.8659 13.8275 31.1074 14.8664 32.3519 15.9023C32.4772 16.0059 32.5984 16.1804 32.7823 15.972C33.1213 15.5883 33.4612 15.2055 33.834 14.7859H33.832ZM33.2306 32.0784H1.77845V33.812H33.2306V32.0784ZM5.97114 9.22463C6.823 8.51336 7.57745 7.8108 8.40942 7.21194C9.02372 6.76909 9.26725 6.27585 9.18972 5.54035C9.12212 4.89982 9.1758 4.24766 9.1758 3.59356H5.97114V9.22463Z" fill="currentColor"/>
</svg>

<svg width="35" height="35" fill="currentColor" xmlns="http://www.w3.org/2000/svg"><path d="M31.728 16.965v13.912c.506 0 .997-.002 1.488 0 .803.003 1.216.388 1.234 1.173.013.592.012 1.185 0 1.778-.016.793-.417 1.172-1.221 1.172H1.757c-.782 0-1.19-.38-1.207-1.15a39.376 39.376 0 0 1 0-1.813c.018-.76.44-1.154 1.21-1.16.472-.002.943-.003 1.414-.007.023 0 .046-.014.091-.03V16.98c-.076.036-.15.065-.22.1-.6.31-1.225.207-1.683-.291a51.36 51.36 0 0 1-.951-1.068c-.592-.68-.545-1.392.144-1.971a427.61 427.61 0 0 1 3.901-3.251.744.744 0 0 0 .302-.647c-.01-2.08-.006-4.16-.005-6.24 0-.853.36-1.203 1.245-1.205 1.054-.002 2.108-.003 3.162 0 .853.004 1.213.363 1.214 1.2v1.929c.17-.136.28-.221.387-.31L16.468.46c.73-.61 1.32-.617 2.051-.008 5.286 4.409 10.57 8.82 15.85 13.231.787.657.834 1.336.163 2.103a67.6 67.6 0 0 1-.83.93c-.531.588-1.12.69-1.827.32-.041-.021-.083-.04-.15-.072h.003ZM4.485 30.875c1.26 0 2.472.004 3.685-.007.076 0 .208-.102.22-.172.152-.822.68-1.432 1.162-2.079.248-.334.465-.723.57-1.118.255-.96-.1-1.778-.755-2.496-.755-.824-1.114-1.785-1.037-2.895.01-.15 0-.301 0-.452-.466.548-.852 1.118-1.242 1.685-.266.387-.587.492-.901.302-.33-.2-.368-.543-.097-.946.762-1.13 1.525-2.262 2.293-3.39.282-.415.79-.428 1.073-.014a415.448 415.448 0 0 1 2.353 3.48c.22.33.154.679-.135.863-.295.188-.63.11-.863-.224-.364-.518-.713-1.047-1.07-1.57-.048-.07-.112-.128-.173-.2-.18 1.078.086 1.997.843 2.77.077.078.139.17.205.257 1.054 1.392 1.052 3.156-.007 4.549-.192.252-.412.485-.585.749-.175.267-.308.56-.463.848.095.038.118.056.14.056 2.345.004 4.688.007 7.033.002.078 0 .215-.07.224-.123.15-.933.775-1.602 1.328-2.314.454-.585.55-1.253.45-1.962-.09-.632-.482-1.104-.88-1.57-.663-.775-1.004-1.654-.954-2.671.01-.195.001-.392.001-.586-.466.564-.855 1.137-1.247 1.708-.264.383-.592.482-.905.282-.306-.196-.347-.547-.095-.922.762-1.13 1.525-2.26 2.292-3.388.296-.436.8-.447 1.092-.017a609.762 609.762 0 0 1 2.315 3.418c.24.356.2.698-.09.897-.307.213-.648.122-.909-.254-.353-.511-.697-1.028-1.05-1.54-.046-.069-.11-.127-.17-.193-.187 1.095.107 2.017.867 2.798.094.096.17.209.25.317.653.87.818 1.843.654 2.891-.127.813-.61 1.435-1.101 2.064-.264.337-.466.72-.697 1.08l.09.092h1.85c1.724 0 3.448.003 5.172-.007.122 0 .338-.078.35-.146.165-.888.737-1.544 1.28-2.22.476-.597.608-1.275.501-2.017-.09-.621-.454-1.09-.847-1.543-.685-.791-1.041-1.69-.982-2.734.011-.186.002-.372.002-.558-.476.564-.868 1.147-1.267 1.723-.249.36-.58.454-.882.264-.308-.192-.366-.534-.128-.887a465.009 465.009 0 0 1 2.356-3.479c.267-.39.752-.403 1.02-.013.81 1.172 1.606 2.355 2.397 3.54.205.307.127.654-.15.832-.288.185-.62.123-.841-.189-.367-.516-.715-1.045-1.074-1.568-.056-.082-.123-.157-.211-.267-.104 1.377.012 1.75.832 2.766.115.143.231.284.337.434a3.648 3.648 0 0 1 .02 4.224c-.21.3-.466.567-.67.869-.191.286-.342.598-.541.95h3.792v-.308c0-4.776-.003-9.553.007-14.33 0-.255-.112-.395-.29-.542A8482 8482 0 0 1 17.802 5.29c-.219-.183-.356-.204-.588-.01A5029.294 5029.294 0 0 1 4.78 15.66a.755.755 0 0 0-.3.647c.008 4.704.006 9.409.006 14.112v.458-.002Zm29.347-16.09c-.223-.19-.405-.353-.592-.509-5.105-4.262-10.21-8.523-15.316-12.783-.493-.412-.36-.403-.828-.014-4.636 3.867-9.27 7.735-13.903 11.603-.667.558-1.332 1.117-2.026 1.7.346.39.679.745.986 1.121.172.21.301.181.484.02.396-.347.805-.68 1.21-1.018 4.192-3.498 8.383-6.997 12.577-10.494.813-.678 1.354-.673 2.167.004 3.345 2.791 6.688 5.583 10.031 8.375 1.244 1.038 2.485 2.076 3.73 3.112.125.104.246.278.43.07l1.052-1.186h-.002Zm-.601 17.293H1.778v1.734h31.453v-1.734ZM5.97 9.225c.852-.712 1.606-1.414 2.438-2.013.615-.443.858-.936.78-1.672-.067-.64-.013-1.292-.013-1.946H5.97v5.63Z"/></svg>
